X:70
%%etbk:tnset id:24,pos:2,rep:3x,ant:
%%etbk:wsite http://www.thesession.org/tunes/display/432
%%etbk:pldat 2016-07-25T19:27,2015-02-02T19:22,2014-12-08T18:34,2014-11-22T16:33,2014-03-22T16:37,2014-02-08T14:06,2013-11-27T18:12,2013-11-18T18:10,2013-09-27T17:00,2013-05-06T17:59
T: Maids Of Mt. Kisco, The
Z: Piano Box Version by Martin Fleischmann
H: Created 2013-02-19 /  Last Modified 2016-07-25
M: 4/4
L: 1/8
R: reel
K: Ador
|: "am"!1!E!3!A!2!A!3!A !4!B!3!A!3!A!2!G | E2!3!A!3!A !4!B!3!A!3!A!2!G | "G"!1!E!2!G!1!G!2!G !4!B!2!G!1!G!2!G | !1!E2!2!G!2!G !1!E!2!G!1!D!2!G |
"am"!1!E!3!A!2!A!3!A !4!B!3!A!3!A!2!G | !1!E2!3!A!1!A !2!B!1!A!2!B!4!d | "em"!2!efge !5!afge|1 !1!d!2!B!1!G!2!B "am"!1!A3!2!G:|2 !1!d!2!B!1!G!2!B "am"!1!A4||
|: "am"!1!A!2!A!1!AB !4!dB!1!A!2!B | "G"!1!G2!4!B!2!G !1!D!2!G!4!B!2!G | "am"!1!A3B !4!d2!2!B!4!d |1 "em"!2!ed!4!ge !1!d!2!B!1!G!2!B :|2 !2!edge !1!d4||
|: "am"!2!e2!4!aa !5!bg!4!a!3!g | "G"!2!ee!1!d!3!B !1!GAB!4!d | "am"!2!e2!4!aa bga!3!g | "em"!4!gede g2eg |
"am"!5!a3f "G"!4!g!3!g!4!ge | !1!d3!3!B !1!GAB!4!d | "am"!5!e!1!A (3AAA "em"!2!efge |1 !1!d!2!B!1!G!2!B "am"!1!A2 B!4!d:|2 !1!d!2!B!1!G!2!B "am"!1!A3!2!G||


